plasma/desktoptheme/Materia/icons/office.svg

<svg xmlns="http://www.w3.org/2000/svg" width="32" height="32" version="1.1">
 <g id="office-chart-pie">
  <rect style="opacity:0.001" width="32" height="32" x="0" y="0"/>
  <g transform="translate(-0.50048095,-1.2566081e-6)">
   <path style="opacity:0.2" d="m 16,2.9997517 c -1.307197,0.018684 -2.240232,0.8058961 -2.677734,2.109375 l 0.01758,-0.058594 -2.054688,5.9492193 -6.925781,0 c -0.015101,-2.42e-4 -0.029821,-2.42e-4 -0.044922,0 -0.8271266,0.02681 -1.5721928,0.512609 -2.0976562,1.152344 -1.136421,1.304496 -0.8962089,3.657981 0.546875,4.630859 l 5.4453125,3.978516 -2.1132813,6.566406 c -0.00235,0.0073 -0.00365,0.01418 -0.00586,0.02148 -0.322905,1.060759 -0.019257,2.152805 0.7929687,2.900391 0.00587,0.0055 0.011571,0.01219 0.017578,0.01758 0.9760412,0.867686 2.3489216,0.977964 3.4511713,0.259766 0.02097,-0.01357 0.04034,-0.02832 0.06055,-0.04297 L 16,26.499752 l 5.587891,3.984375 c 0.02021,0.01466 0.03958,0.02941 0.06055,0.04297 1.10225,0.718198 2.475129,0.60792 3.451171,-0.259766 0.006,-0.0054 0.01167,-0.01206 0.01758,-0.01758 0.812225,-0.747586 1.115873,-1.839632 0.792968,-2.900391 -0.0022,-0.0073 -0.0035,-0.01421 -0.0059,-0.02148 l -2.113281,-6.566406 5.445312,-3.978516 c 1.443084,-0.972878 1.683296,-3.326363 0.546875,-4.630859 -0.525463,-0.639735 -1.270529,-1.125534 -2.097656,-1.152344 -0.0151,-2.42e-4 -0.02982,-2.42e-4 -0.04492,0 l -6.925781,0 -2.054688,-5.9492191 0.01758,0.058594 C 18.240232,3.8056478 17.307197,3.0184357 16,2.9997517 Z"/>
   <path style="fill:#ffbc2c" transform="translate(0.49999991,0)" d="M 15.5,2 C 14.192803,2.018684 13.259768,2.8058961 12.822266,4.109375 L 12.839844,4.0507812 10.785156,10 3.859375,10 C 3.844274,9.9997578 3.829554,9.9997578 3.814453,10 2.9873264,10.02681 2.2422602,10.512609 1.7167968,11.152344 0.58037578,12.45684 0.82058787,14.810325 2.2636718,15.783203 l 5.4453125,3.978516 -2.1132813,6.566406 c -0.00235,0.0073 -0.00365,0.01418 -0.00586,0.02148 -0.322905,1.060759 -0.019257,2.152805 0.7929687,2.900391 0.0059,0.0055 0.011568,0.01218 0.017578,0.01758 0.9760412,0.867686 2.348922,0.977964 3.4511719,0.259766 0.02097,-0.01357 0.040337,-0.02832 0.060547,-0.04297 L 15.5,25.5 l 5.587891,3.984375 c 0.02021,0.01466 0.03958,0.02941 0.06055,0.04297 1.10225,0.718198 2.475129,0.60792 3.451171,-0.259766 0.006,-0.0054 0.01167,-0.01206 0.01758,-0.01758 0.812225,-0.747586 1.115873,-1.839632 0.792968,-2.900391 -0.0022,-0.0073 -0.0035,-0.01421 -0.0059,-0.02148 l -2.113281,-6.566406 5.445312,-3.978516 C 30.179412,14.810325 30.419624,12.45684 29.283203,11.152344 28.75774,10.512609 28.012674,10.02681 27.185547,10 c -0.0151,-2.422e-4 -0.02982,-2.422e-4 -0.04492,0 l -6.925781,0 -2.054688,-5.9492188 0.01758,0.058594 C 17.740232,2.8058961 16.807197,2.018684 15.5,2 Z"/>
   <path style="opacity:0.2;fill:#ffffff" d="M 16,2 C 14.692803,2.018684 13.759768,2.8058961 13.322266,4.109375 L 13.339844,4.0507812 11.285156,10 4.359375,10 C 4.344274,9.9997578 4.3295541,9.9997578 4.3144531,10 3.4873265,10.02681 2.7422603,10.512609 2.2167969,11.152344 1.6227145,11.83429 1.4133568,12.800795 1.546875,13.708984 1.6273839,13.134555 1.8401056,12.584747 2.2167969,12.152344 2.7422603,11.512609 3.4873265,11.02681 4.3144531,11 c 0.015101,-2.42e-4 0.029821,-2.42e-4 0.044922,0 l 6.9257809,0 2.054688,-5.9492188 -0.01758,0.058594 C 13.759768,3.8058961 14.692803,3.018684 16,3 c 1.307197,0.018684 2.240265,0.8058929 2.677734,2.109375 L 18.660156,5.0507812 20.714844,11 l 6.925781,0 c 0.0151,-2.42e-4 0.02982,-2.42e-4 0.04492,0 0.827127,0.02681 1.572193,0.512609 2.097656,1.152344 0.376691,0.432403 0.589413,0.982211 0.669922,1.55664 0.133518,-0.908189 -0.07584,-1.874694 -0.669922,-2.55664 C 29.25774,10.512609 28.512674,10.02681 27.685547,10 c -0.0151,-2.422e-4 -0.02982,-2.422e-4 -0.04492,0 l -6.925781,0 -2.054688,-5.9492188 0.01758,0.058594 C 18.240232,2.8058961 17.307197,2.018684 16,2 Z M 7.9492188,20.572266 6.0957031,26.328125 c -0.00235,0.0073 -0.00365,0.01418 -0.00586,0.02148 -0.1364147,0.448129 -0.1545077,0.901066 -0.076172,1.332032 0.020171,-0.110727 0.042543,-0.22156 0.076172,-0.332032 0.00221,-0.0073 0.00351,-0.01418 0.00586,-0.02148 L 8.2089844,20.761719 7.9492188,20.572266 Z m 16.1015622,0 -0.259765,0.189453 2.113281,6.566406 c 0.0024,0.0073 0.0037,0.01418 0.0059,0.02148 0.03363,0.110472 0.056,0.221305 0.07617,0.332032 0.07834,-0.430966 0.06024,-0.883903 -0.07617,-1.332032 -0.0022,-0.0073 -0.0035,-0.01421 -0.0059,-0.02148 l -1.853516,-5.755859 z"/>
  </g>
 </g>
</svg>

<?xml version="1.0" encoding="UTF-8"?>
<svg width="32" height="32" version="1.1" xmlns="http://www.w3.org/2000/svg">
 <g id="office-chart-pie">
  <rect width="32" height="32" opacity=".001"/>
  <g transform="translate(-.50048 -1.2566e-6)">
   <path d="m16 2.9998c-1.3072 0.018684-2.2402 0.8059-2.6777 2.1094l0.01758-0.058594-2.0547 5.9492h-6.9258c-0.015101-2.42e-4 -0.029821-2.42e-4 -0.044922 0-0.82713 0.02681-1.5722 0.51261-2.0977 1.1523-1.1364 1.3045-0.89621 3.658 0.54688 4.6309l5.4453 3.9785-2.1133 6.5664c-0.00235 0.0073-0.00365 0.01418-0.00586 0.02148-0.3229 1.0608-0.019257 2.1528 0.79297 2.9004 0.00587 0.0055 0.011571 0.01219 0.017578 0.01758 0.97604 0.86769 2.3489 0.97796 3.4512 0.25977 0.02097-0.01357 0.04034-0.02832 0.06055-0.04297l5.5879-3.9844 5.5879 3.9844c0.02021 0.01466 0.03958 0.02941 0.06055 0.04297 1.1022 0.7182 2.4751 0.60792 3.4512-0.25977 6e-3 -0.0054 0.01167-0.01206 0.01758-0.01758 0.81222-0.74759 1.1159-1.8396 0.79297-2.9004-0.0022-0.0073-0.0035-0.01421-0.0059-0.02148l-2.1133-6.5664 5.4453-3.9785c1.4431-0.97288 1.6833-3.3264 0.54688-4.6309-0.52546-0.63974-1.2705-1.1255-2.0977-1.1523-0.0151-2.42e-4 -0.02982-2.42e-4 -0.04492 0h-6.9258l-2.0547-5.9492 0.01758 0.058594c-0.43747-1.3035-1.3705-2.0907-2.6777-2.1094z" opacity=".2"/>
   <path transform="translate(.5)" d="m15.5 2c-1.3072 0.018684-2.2402 0.8059-2.6777 2.1094l0.017578-0.058594-2.0547 5.9492h-6.9258c-0.015101-2.422e-4 -0.029821-2.422e-4 -0.044922 0-0.82713 0.02681-1.5722 0.51261-2.0977 1.1523-1.1364 1.3045-0.89621 3.658 0.54688 4.6309l5.4453 3.9785-2.1133 6.5664c-0.00235 0.0073-0.00365 0.01418-0.00586 0.02148-0.3229 1.0608-0.019257 2.1528 0.79297 2.9004 0.0059 0.0055 0.011568 0.01218 0.017578 0.01758 0.97604 0.86769 2.3489 0.97796 3.4512 0.25977 0.02097-0.01357 0.040337-0.02832 0.060547-0.04297l5.5879-3.9844 5.5879 3.9844c0.02021 0.01466 0.03958 0.02941 0.06055 0.04297 1.1022 0.7182 2.4751 0.60792 3.4512-0.25977 6e-3 -0.0054 0.01167-0.01206 0.01758-0.01758 0.81222-0.74759 1.1159-1.8396 0.79297-2.9004-0.0022-0.0073-0.0035-0.01421-0.0059-0.02148l-2.1133-6.5664 5.4453-3.9785c1.4431-0.97288 1.6833-3.3264 0.54691-4.6309-0.52546-0.63974-1.2705-1.1255-2.0977-1.1523-0.0151-2.422e-4 -0.02982-2.422e-4 -0.04492 0h-6.9258l-2.0547-5.9492 0.01758 0.058594c-0.43751-1.3035-1.3705-2.0907-2.6777-2.1094z" fill="#ffbc2c"/>
   <path d="m16 2c-1.3072 0.018684-2.2402 0.8059-2.6777 2.1094l0.017578-0.058594-2.0547 5.9492h-6.9258c-0.015101-2.422e-4 -0.029821-2.422e-4 -0.044922 0-0.82713 0.02681-1.5722 0.51261-2.0977 1.1523-0.59408 0.68195-0.80344 1.6485-0.66992 2.5566 0.080509-0.57443 0.29323-1.1242 0.66992-1.5566 0.52546-0.63974 1.2705-1.1255 2.0977-1.1523 0.015101-2.42e-4 0.029821-2.42e-4 0.044922 0h6.9258l2.0547-5.9492-0.01758 0.058594c0.4375-1.3035 1.3705-2.0907 2.6777-2.1094 1.3072 0.018684 2.2403 0.80589 2.6777 2.1094l-0.017578-0.058594 2.0547 5.9492h6.9258c0.0151-2.42e-4 0.02982-2.42e-4 0.04492 0 0.82713 0.02681 1.5722 0.51261 2.0977 1.1523 0.37669 0.4324 0.58941 0.98221 0.66992 1.5566 0.13352-0.90819-0.07584-1.8747-0.66992-2.5566-0.52546-0.63974-1.2705-1.1255-2.0977-1.1523-0.0151-2.422e-4 -0.02982-2.422e-4 -0.04492 0h-6.9258l-2.0547-5.9492 0.01758 0.058594c-0.43751-1.3035-1.3705-2.0907-2.6777-2.1094zm-8.0508 18.572-1.8535 5.7559c-0.00235 0.0073-0.00365 0.01418-0.00586 0.02148-0.13641 0.44813-0.15451 0.90107-0.076172 1.332 0.020171-0.11073 0.042543-0.22156 0.076172-0.33203 0.00221-0.0073 0.00351-0.01418 0.00586-0.02148l2.1133-6.5664-0.25977-0.18945zm16.102 0-0.25976 0.18945 2.1133 6.5664c0.0024 0.0073 0.0037 0.01418 0.0059 0.02148 0.03363 0.11047 0.056 0.2213 0.07617 0.33203 0.07834-0.43097 0.06024-0.8839-0.07617-1.332-0.0022-0.0073-0.0035-0.01421-0.0059-0.02148l-1.8535-5.7559z" fill="#fff" opacity=".2"/>
  </g>
 </g>
</svg>
